X:213 
T:Tony Lowe's (polka) 
B:CRE 3.080 (Polca Antaine Mhic LÃÂÃÂÃÂÃÂº)
F:file ID: cre.3/213tony
L:1/8
M:2/4
Q:120
R:polka
K:G
B/c/|:de/d/ c/B/A/c/|BG G/F/G/B/|AD F>G|AG GB/c/|
de/d/ c/B/A/c/|BG G/F/G/B/|AD F>G|AG G2:|
|:GB/d/ g>a|fe e2|FA/c/ f>g|ed d/c/B/A/|
GB/d/ g>a|fe e2|f/g/a/f/ de/f/|ag g2:|

%%%

